X: 2094
T: LADY JEMIMA JOHNSTON
C:
Q: "Strathspey."
R: Strathspey.
%R: strathspey
B: James Kerr "Merry Melodies" v.2 p.12 #0094
Z: 2016 John Chambers <jc:trillian.mit.edu>
M: C
L: 1/16
%%slurgraces yes
%%graceslurs yes
K: C
uF2 |\
vE3vFuG3uF vEc3G3uc | vE3vGuc3uE vFD3D3uF |\
E3FG3F E3cG3E | vFD3 {A,}G3uF vEC3 C3uF |\
(E3F)(G3F) vE3vcuG3uc | vEc3G3uE vFD3D3uF |
(E3F)(G3E) (G3A)(d3f) | vec3G3uB cC3C2 |]\
(uef) |\
(g3e)uc3ue (g3a)ug3ue | vf3ud fedc Bd3 d2(ef) |\
(g3e)c3e (g3a)g3e |
vf3vdug3uG Ac3 c2(uef) |\
(g3e)uc3ue (g3a)ug3ue | vf3ud fedc (Bd3) (d2ef) |\
e3g G3E F3d F3D | B3cd3f ec3 c2 |]
